X:1
T:Title
%%score { 1 | 2 }
L:1/8
Q:1/4=100
M:4/4
K:F
V:1 treble nm="Grand Piano"
V:2 bass 
V:1
 A2 A>A AABA | [DG][DG]DD [DG]4 | [EG]2 [EG]>[EG] [EG][EG][EA][EG] | FFFD C4 | %4
w: John~R.~Sweney * * * * * *||||
 A2 A>A [FA][FA][EG^c][EGc] | [DFd][DFd][Fd][Fd] [DFB]4 | [FA]2 [EG][FA] [Ec][Ec][EB][EG] | %7
w: |||
 [CF]6 z2 | [DF]2 [DF]>[DF] [DFB][DFB][Fd][Fd] | c2 A2 c4 | [Ec]2 [EG]>[EG] [EG][EG][Ec][EB] | %11
w: ||||
 A2 B2 A4 | AGFG A [Ac]3 | [GB][FA][EG][FA] [EB] [Ed]3 | c2 c>d cA[CF][DFG] | %15
w: ||||
 [CFA]2 [B,EG]2 [A,CF]4 |] %16
w: |
V:2
 [F,CF]2 [F,CF]>[F,CF] [F,CF][F,CF][F,DF][F,CF] | [B,,B,][B,,B,][B,,B,][B,,B,] [B,,B,]4 | %2
 [C,B,]2 [C,B,]>[C,B,] [C,B,][C,B,][C,C][C,B,] | [F,A,][F,A,C][F,A,C][F,B,] [F,A,]4 | %4
 [F,CF]2 [F,CF]>[F,CF] [D,D][D,D]A,,A,, | B,,B,,[B,,B,][B,,B,] B,,4 | %6
 [C,C]2 [C,C][C,C] [C,G,][C,G,][C,G,][C,B,] | [F,A,]6 z2 | %8
 [B,,B,]2 [B,,B,]>[B,,B,] B,,B,,[B,,B,][B,,B,] | [F,A,F]2 [F,CF]2 [F,A,F]4 | %10
 [C,G,]2 [C,C]>[C,C] [C,C][C,C][C,C][C,C] | [F,CF]2 [F,DF]2 [F,CF]4 | %12
 [F,CF][F,B,C][F,A,C][F,B,C] [F,CF] [F,C]3 | [C,C][C,C][C,C][C,C] [C,G,] [C,B,]3 | %14
 [F,A,F]2 [F,A,F]>[F,B,F] [F,A,F][F,CF]A,,B,, | C,2 C,2 F,4 |] %16

